X:1
T:Marino Casino, The
C:John Sheahan (The Dubliners)
S:http://www.youtube.com/watch?v=AygW5EbSpSI
Z:MTGuru for Chiff & Fipple 2009-02-22
M:4/4
Z: Contributed 2016-11-20 19:35:49 by Michel Provencher mic1591@hotmail.com
K:D
"Setting in D - Fiddle"
FG|:Adcd B2cd|A<dG2 TF2ED|G2FE A2D2|EDCD E2FG|
Adcd B2cd|A<dG2 TF2ED|G2FE A2C2|D8:|
CDEC A,2A2|GFEF D2dc|BcdA GdF2|E3D E3D|
CDEC A,2A2|GFEF D2dc|BcdA GdF2|TE3D D4:|
"Setting in G - Whistle"
[K:G]dgfg e2fg|dgc2 B2AG|c2BA d2G2|AGFG A2Bc|
dgfg e2fg|dgc2 TB2AG|c2BA d2F2|G8:|
FGAF D2d2|cBAB G2gf|efgd cgB2|A3G A3G|
FGAF D2d2|cBAB G2gf|efgd cgB2|TA3G G4:|
